X:1
T:Zäuerli eines Chlauseschuppels. A-Dur (voc)
T:Naturjodel rund um den Saentis (www.roothuus-gonten.ch)
%%partsbox
%P:
Q:1/4=60
R:Zeuerli
M:4/4
L:1/8
K:A  % %%MIDI gchordon
e3dB2de | [M:6/4] "A"e2AAA2 cA e2AA | [M:4/4] "E7"G2dG eG/G/G2 | [M:6/4] "A"A2cAe2AAA4 | 
w:jo ho ja ho-o jo be-li ho-jo o i-li jo jo ho o ho be-li o jo jo a ho i-li jo
[M:4/4] {/d}"E7"e3 d B>e ^d2 | "A"A2 cA e>AA2 | "E7"GG/G/ dG e>GB2 | "A"A8 |]  
w: (di)o ho dja ho bo dja ho-a ho i-da  jo-be-li ho a ho i ho  ja
[M:5/4] B3ce2d2E2 | "A"A3ce2c2E2 | [M:6/4] "E7"B2dee2 ^dE/E/ c>G B2 | [M:4/4] "A"A8 | 
w: jo ho ho o ja dja ho ho o ja jo ho-o ho ho ja-li ho-o ho ja 
[M:5/4] "E7"B3ce2d2E2 | "A"A3ce2c2E2 | [M:6/4] "E7"B2dee2 ^dE/E/ c>G B2 | [M:4/4] "A"A8 |] 
w: jo ho ho o ja dja ho ho o ja jo ho-o ho ho ja-li ho-o ho ja 
W:
%W:Parts:
W:Unbekannter Chlauseschuppel
W: Kapelle Edelweiss, Trogen (Decca LF 1251, "Echt Appenzellerisch")
W:aufgenommen am Alten Sylvester 1969 im Bindli, Urnäsch, von Armin Fässler
W: 
W:Interessante - altfrensche - selten mehr gehörte Vokalistion.
W: Oft kaum definierbar ob "l" "d" oder "b"
W:
W:www.roothuus-gonten.ch/mediendateien/jodel/pdf/Zäuerli eines Chlauseschuppels.pdf
W: *AUDIO*: www.roothuus-gonten.ch/cms/index.php/de/naturjodel-rund-um-den-saentis
% © 2015 ROOTHUUS GONTEN. # 1096.10 (CD 2.9 ZAV)
% Feb 1, 2019

